X: 1
T:Hommage a Edmond Parizeau
M:2/2
L:1/8
C:Marcel Messervier c 1981
R:reel
K:A
| "A" eAAe AAeA | "A" AAeA (3efe) ed | "A" ceAB cAeA | "A" ceAc dedc |!
"E" B4 BABc| "E" (3BcB Ac efed|"A" c2B2 ABcA | "E" E4 ABcd |!
"A" eAAe AAeA | "A" AAeA (3efe ed | "A" ceAB eAeA | "A" ceAc dedc|!
"E" B4 BABc | "E" e2d2c2B2 | "A" Afed "E" cdBc | "A" A2c2(3BcB A2 |]!
|: "D" a4f4 | "D" d3Ad2fd | "A" e4efec | "A" A2c2(3BcB A2 |!
"E" B4BABc | "E" e2d2c2B2 |1 "A" cBAc ecef | "A" e2c2(BcB A2 :|2  "A" Af
ed "E" cdBc | "A" A4||
